apps/scalable/audex.svg

<svg xmlns="http://www.w3.org/2000/svg" style="isolation:isolate" width="256" height="256"><defs><filter id="a" width="270.648" height="254.338" x="-7.32" y="2.95" filterUnits="userSpaceOnUse"><feGaussianBlur xmlns="http://www.w3.org/2000/svg" in="SourceGraphic" stdDeviation="4.294"/><feOffset xmlns="http://www.w3.org/2000/svg" dy="4" result="pf_100_offsetBlur"/><feFlood xmlns="http://www.w3.org/2000/svg" flood-opacity=".4"/><feComposite xmlns="http://www.w3.org/2000/svg" in2="pf_100_offsetBlur" operator="in" result="pf_100_dropShadow"/><feBlend xmlns="http://www.w3.org/2000/svg" in="SourceGraphic" in2="pf_100_dropShadow"/></filter></defs><path fill="#5D5D5D" d="M165.685 11.947c74.055 0 84.639 10.557 84.639 84.544v59.251c0 73.986-10.584 84.543-84.639 84.543h-75.37c-74.055 0-84.639-10.557-84.639-84.543V96.491c0-73.987 10.584-84.544 84.639-84.544h75.37z" filter="url(#a)"/><g opacity=".4"><linearGradient id="b" x1=".517" x2=".517" y2="1"><stop offset="0%" stop-color="#fff"/><stop offset="12.5%" stop-opacity=".098" stop-color="#fff"/><stop offset="92.5%" stop-opacity=".098"/><stop offset="100%" stop-opacity=".498"/></linearGradient><path fill="none" stroke="url(#b)" stroke-linecap="round" stroke-linejoin="round" stroke-width="4.077" d="M165.685 11.947c74.055 0 84.639 10.557 84.639 84.544v59.251c0 73.986-10.584 84.543-84.639 84.543h-75.37c-74.055 0-84.639-10.557-84.639-84.543V96.491c0-73.987 10.584-84.544 84.639-84.544h75.37z" vector-effect="non-scaling-stroke"/></g><path fill="#FFF" d="M5.676 126.116v29.626c0 73.986 10.584 84.543 84.639 84.543h75.37c74.055 0 84.639-10.557 84.639-84.543v-29.626H5.676z" opacity=".1"/><linearGradient id="c" x1=".234" x2=".754" y1=".165" y2=".825" gradientTransform="matrix(165 0 0 165 45.5 43.5)" gradientUnits="userSpaceOnUse"><stop offset="0%" stop-color="#dedbde"/><stop offset="50%" stop-color="#e6e6e6"/><stop offset="100%" stop-color="#d2d2d2"/></linearGradient><path fill="url(#c)" d="M210.5 126c0-45.729-36.771-82.5-82.5-82.5S45.5 80.271 45.5 126s36.771 82.5 82.5 82.5 82.5-36.771 82.5-82.5zm-52.317 0c0 16.613-13.237 30.183-30.183 30.183-17.278 0-30.183-13.906-30.183-30.183 0-16.61 12.24-30.183 30.183-30.183 17.943 0 30.183 13.902 30.183 30.183z"/><g filter="url(#Yk5Z2e1qPvwctgJvwLN85Qsw8V8zMICC)"><path d="M66.9 164.61h122.435c6.211 0 11.254 5.043 11.254 11.254v30.883c0 6.211-5.043 11.253-11.254 11.253H66.9c-6.211 0-11.254-5.042-11.254-11.253v-30.883c0-6.211 5.043-11.254 11.254-11.254z" fill="#1463a5"/><path fill="#111" fill-rule="evenodd" d="M81.139 203.358h-4.504l11.802-21.741h4.131l4.162 21.741h-4.317l-.808-4.504h-8.044l-2.422 4.504zm7.64-14.442l-3.261 6.118h5.435l-1.087-6.056q-.031-.124-.093-.528t-.125-.73q-.062-.326-.062-.481-.341.776-.807 1.677zm19.442 14.814q-3.292 0-5.404-1.755-2.112-1.754-2.112-5.202 0-1.242.342-3.23l2.143-11.926h4.192l-2.205 12.703q-.248 1.397-.248 2.05 0 1.739 1.009 2.5 1.01.761 2.593.761 2.081 0 3.401-1.025 1.32-1.025 1.755-3.572l2.36-13.417h4.193l-2.422 13.79q-.435 2.453-1.32 4.13-.885 1.678-2.205 2.563-1.32.885-2.764 1.258-1.445.372-3.308.372zm12.206-.372l3.82-21.741h6.739q4.317 0 6.569 2.795 2.252 2.796 2.252 7.113 0 2.143-.668 4.177t-1.988 3.789q-1.32 1.755-3.618 2.811t-5.249 1.056h-7.857zm4.814-3.976h3.012q3.354 0 5.187-2.314 1.832-2.313 1.832-5.357 0-2.795-1.227-4.457-1.226-1.661-3.618-1.661h-2.764l-2.422 13.789zm30.995 3.976h-14.877l3.821-21.741h14.255l-.683 3.976h-10.001l-.807 4.565h5.807l-.714 3.975h-5.808l-.9 5.249h10.621l-.714 3.976zm7.112 0h-5.155l8.851-11.399-4.41-10.342h4.721l2.733 6.429 5.031-6.429h5.156l-8.355 10.715 4.752 11.026h-4.721l-3.074-7.113-5.529 7.113z" opacity=".4"/><path fill="#E7CB14" fill-rule="evenodd" d="M80.801 200.873h-4.503l11.802-21.74h4.13l4.162 21.74h-4.317l-.807-4.503h-8.044l-2.423 4.503zm7.64-14.442l-3.261 6.118h5.435l-1.087-6.056q-.031-.124-.093-.528t-.124-.73q-.062-.326-.062-.481-.342.776-.808 1.677zm19.442 14.815q-3.292 0-5.404-1.755t-2.112-5.202q0-1.243.342-3.23l2.143-11.926h4.193l-2.205 12.702q-.249 1.398-.249 2.05 0 1.739 1.01 2.5 1.009.761 2.593.761 2.081 0 3.401-1.025 1.32-1.025 1.755-3.572l2.36-13.416h4.193l-2.423 13.789q-.435 2.454-1.32 4.131t-2.205 2.562q-1.32.885-2.764 1.258-1.444.373-3.308.373zm12.206-.373l3.82-21.74h6.74q4.317 0 6.568 2.795 2.252 2.795 2.252 7.112 0 2.143-.668 4.177-.667 2.034-1.987 3.789-1.32 1.755-3.619 2.811-2.298 1.056-5.248 1.056h-7.858zm4.814-3.975h3.013q3.354 0 5.186-2.314 1.833-2.314 1.833-5.358 0-2.795-1.227-4.457-1.227-1.661-3.618-1.661h-2.764l-2.423 13.79zm30.996 3.975h-14.877l3.82-21.74h14.255l-.683 3.975h-10l-.808 4.565h5.808l-.714 3.976h-5.808l-.901 5.249h10.622l-.714 3.975zm7.112 0h-5.156l8.852-11.398-4.411-10.342h4.721l2.733 6.428 5.032-6.428h5.155l-8.354 10.714 4.751 11.026h-4.72l-3.075-7.112-5.528 7.112z"/></g><defs><filter id="Yk5Z2e1qPvwctgJvwLN85Qsw8V8zMICC" width="204.943" height="113.39" x="25.65" y="138.61" filterUnits="userSpaceOnUse"><feGaussianBlur xmlns="http://www.w3.org/2000/svg" in="SourceGraphic" stdDeviation="4.294"/><feOffset xmlns="http://www.w3.org/2000/svg" dy="4" result="pf_100_offsetBlur"/><feFlood xmlns="http://www.w3.org/2000/svg" flood-opacity=".4"/><feComposite xmlns="http://www.w3.org/2000/svg" in2="pf_100_offsetBlur" operator="in" result="pf_100_dropShadow"/><feBlend xmlns="http://www.w3.org/2000/svg" in="SourceGraphic" in2="pf_100_dropShadow"/></filter></defs></svg>

<svg xmlns="http://www.w3.org/2000/svg" style="isolation:isolate" width="256" height="256" viewBox="0 0 256 256">
 <defs>
  <filter id="l0SE3RnjCZbDO6Blax5yheB7640E0HhZ" width="270.648" height="254.338" x="-7.32" y="2.95" filterUnits="userSpaceOnUse">
   <feGaussianBlur xmlns="http://www.w3.org/2000/svg" in="SourceGraphic" stdDeviation="4.294"/>
   <feOffset xmlns="http://www.w3.org/2000/svg" dx="0" dy="4" result="pf_100_offsetBlur"/>
   <feFlood xmlns="http://www.w3.org/2000/svg" flood-opacity=".4"/>
   <feComposite xmlns="http://www.w3.org/2000/svg" in2="pf_100_offsetBlur" operator="in" result="pf_100_dropShadow"/>
   <feBlend xmlns="http://www.w3.org/2000/svg" in="SourceGraphic" in2="pf_100_dropShadow" mode="normal"/>
  </filter>
 </defs>
 <g filter="url(#l0SE3RnjCZbDO6Blax5yheB7640E0HhZ)">
  <path fill="#5D5D5D" d="M 165.685 11.947 C 239.74 11.947 250.324 22.504 250.324 96.491 L 250.324 155.742 C 250.324 229.728 239.74 240.285 165.685 240.285 L 90.315 240.285 C 16.26 240.285 5.676 229.728 5.676 155.742 L 5.676 96.491 C 5.676 22.504 16.26 11.947 90.315 11.947 L 165.685 11.947 Z"/>
 </g>
 <g opacity=".4">
  <linearGradient id="_lgradient_0" x1=".517" x2=".517" y1="0" y2="1">
   <stop offset="0%" style="stop-color:rgb(255,255,255)"/>
   <stop offset="12.5%" stop-opacity=".098" style="stop-color:rgb(255,255,255)"/>
   <stop offset="92.5%" stop-opacity=".098" style="stop-color:rgb(0,0,0)"/>
   <stop offset="100%" stop-opacity=".498" style="stop-color:rgb(0,0,0)"/>
  </linearGradient>
  <path fill="none" stroke="url(#_lgradient_0)" stroke-linecap="round" stroke-linejoin="round" stroke-width="4.077" d="M 165.685 11.947 C 239.74 11.947 250.324 22.504 250.324 96.491 L 250.324 155.742 C 250.324 229.728 239.74 240.285 165.685 240.285 L 90.315 240.285 C 16.26 240.285 5.676 229.728 5.676 155.742 L 5.676 96.491 C 5.676 22.504 16.26 11.947 90.315 11.947 L 165.685 11.947 Z" vector-effect="non-scaling-stroke"/>
 </g>
 <g opacity=".1">
  <path fill="#FFFFFF" d="M 5.676 126.116 L 5.676 155.742 C 5.676 229.728 16.26 240.285 90.315 240.285 L 165.685 240.285 C 239.74 240.285 250.324 229.728 250.324 155.742 L 250.324 126.116 L 5.676 126.116 Z"/>
 </g>
 <linearGradient id="_lgradient_1" x1=".234" x2=".754" y1=".165" y2=".825" gradientTransform="matrix(165,0,0,165,45.5,43.5)" gradientUnits="userSpaceOnUse">
  <stop offset="0%" style="stop-color:rgb(222,219,222)"/>
  <stop offset="50%" style="stop-color:rgb(230,230,230)"/>
  <stop offset="100%" style="stop-color:rgb(210,210,210)"/>
 </linearGradient>
 <path fill="url(#_lgradient_1)" d="M 210.5 126 C 210.5 80.271 173.729 43.5 128 43.5 C 82.271 43.5 45.5 80.271 45.5 126 C 45.5 171.729 82.271 208.5 128 208.5 C 173.729 208.5 210.5 171.729 210.5 126 Z M 158.183 126 C 158.183 142.613 144.946 156.183 128 156.183 C 110.722 156.183 97.817 142.277 97.817 126 C 97.817 109.39 110.057 95.817 128 95.817 C 145.943 95.817 158.183 109.719 158.183 126 Z"/>
 <g filter="url(#Yk5Z2e1qPvwctgJvwLN85Qsw8V8zMICC)">
  <path d="M 66.9 164.61 L 189.335 164.61 C 195.546 164.61 200.589 169.653 200.589 175.864 L 200.589 206.747 C 200.589 212.958 195.546 218 189.335 218 L 66.9 218 C 60.689 218 55.646 212.958 55.646 206.747 L 55.646 175.864 C 55.646 169.653 60.689 164.61 66.9 164.61 Z" style="fill:#1463A5"/>
  <g opacity=".4">
   <path fill="#111111" fill-rule="evenodd" d="M 81.139 203.358 L 76.635 203.358 L 88.437 181.617 L 92.568 181.617 L 96.73 203.358 L 92.413 203.358 L 91.605 198.854 L 83.561 198.854 L 81.139 203.358 Z M 88.779 188.916 L 85.518 195.034 L 90.953 195.034 L 89.866 188.978 L 89.866 188.978 Q 89.835 188.854 89.773 188.45 L 89.773 188.45 L 89.773 188.45 Q 89.711 188.046 89.648 187.72 L 89.648 187.72 L 89.648 187.72 Q 89.586 187.394 89.586 187.239 L 89.586 187.239 L 89.586 187.239 Q 89.245 188.015 88.779 188.916 L 88.779 188.916 Z M 108.221 203.73 L 108.221 203.73 L 108.221 203.73 Q 104.929 203.73 102.817 201.975 L 102.817 201.975 L 102.817 201.975 Q 100.705 200.221 100.705 196.773 L 100.705 196.773 L 100.705 196.773 Q 100.705 195.531 101.047 193.543 L 101.047 193.543 L 103.19 181.617 L 107.382 181.617 L 105.177 194.32 L 105.177 194.32 Q 104.929 195.717 104.929 196.37 L 104.929 196.37 L 104.929 196.37 Q 104.929 198.109 105.938 198.87 L 105.938 198.87 L 105.938 198.87 Q 106.948 199.631 108.531 199.631 L 108.531 199.631 L 108.531 199.631 Q 110.612 199.631 111.932 198.606 L 111.932 198.606 L 111.932 198.606 Q 113.252 197.581 113.687 195.034 L 113.687 195.034 L 116.047 181.617 L 120.24 181.617 L 117.818 195.407 L 117.818 195.407 Q 117.383 197.86 116.498 199.537 L 116.498 199.537 L 116.498 199.537 Q 115.613 201.215 114.293 202.1 L 114.293 202.1 L 114.293 202.1 Q 112.973 202.985 111.529 203.358 L 111.529 203.358 L 111.529 203.358 Q 110.084 203.73 108.221 203.73 Z M 120.427 203.358 L 124.247 181.617 L 130.986 181.617 L 130.986 181.617 Q 135.303 181.617 137.555 184.412 L 137.555 184.412 L 137.555 184.412 Q 139.807 187.208 139.807 191.525 L 139.807 191.525 L 139.807 191.525 Q 139.807 193.668 139.139 195.702 L 139.139 195.702 L 139.139 195.702 Q 138.471 197.736 137.151 199.491 L 137.151 199.491 L 137.151 199.491 Q 135.831 201.246 133.533 202.302 L 133.533 202.302 L 133.533 202.302 Q 131.235 203.358 128.284 203.358 L 128.284 203.358 L 120.427 203.358 Z M 125.241 199.382 L 128.253 199.382 L 128.253 199.382 Q 131.607 199.382 133.44 197.068 L 133.44 197.068 L 133.44 197.068 Q 135.272 194.755 135.272 191.711 L 135.272 191.711 L 135.272 191.711 Q 135.272 188.916 134.045 187.254 L 134.045 187.254 L 134.045 187.254 Q 132.819 185.593 130.427 185.593 L 130.427 185.593 L 127.663 185.593 L 125.241 199.382 Z M 156.236 203.358 L 141.359 203.358 L 145.18 181.617 L 159.435 181.617 L 158.752 185.593 L 148.751 185.593 L 147.944 190.158 L 153.751 190.158 L 153.037 194.133 L 147.229 194.133 L 146.329 199.382 L 156.95 199.382 L 156.236 203.358 Z M 163.348 203.358 L 158.193 203.358 L 167.044 191.959 L 162.634 181.617 L 167.355 181.617 L 170.088 188.046 L 175.119 181.617 L 180.275 181.617 L 171.92 192.332 L 176.672 203.358 L 171.951 203.358 L 168.877 196.245 L 163.348 203.358 Z"/>
  </g>
  <path fill="#E7CB14" fill-rule="evenodd" d="M 80.801 200.873 L 76.298 200.873 L 88.1 179.133 L 92.23 179.133 L 96.392 200.873 L 92.075 200.873 L 91.268 196.37 L 83.224 196.37 L 80.801 200.873 Z M 88.441 186.431 L 85.18 192.549 L 90.615 192.549 L 89.528 186.493 L 89.528 186.493 Q 89.497 186.369 89.435 185.965 L 89.435 185.965 L 89.435 185.965 Q 89.373 185.561 89.311 185.235 L 89.311 185.235 L 89.311 185.235 Q 89.249 184.909 89.249 184.754 L 89.249 184.754 L 89.249 184.754 Q 88.907 185.53 88.441 186.431 L 88.441 186.431 Z M 107.883 201.246 L 107.883 201.246 L 107.883 201.246 Q 104.591 201.246 102.479 199.491 L 102.479 199.491 L 102.479 199.491 Q 100.367 197.736 100.367 194.289 L 100.367 194.289 L 100.367 194.289 Q 100.367 193.046 100.709 191.059 L 100.709 191.059 L 102.852 179.133 L 107.045 179.133 L 104.84 191.835 L 104.84 191.835 Q 104.591 193.233 104.591 193.885 L 104.591 193.885 L 104.591 193.885 Q 104.591 195.624 105.601 196.385 L 105.601 196.385 L 105.601 196.385 Q 106.61 197.146 108.194 197.146 L 108.194 197.146 L 108.194 197.146 Q 110.275 197.146 111.595 196.121 L 111.595 196.121 L 111.595 196.121 Q 112.915 195.096 113.35 192.549 L 113.35 192.549 L 115.71 179.133 L 119.903 179.133 L 117.48 192.922 L 117.48 192.922 Q 117.045 195.376 116.16 197.053 L 116.16 197.053 L 116.16 197.053 Q 115.275 198.73 113.955 199.615 L 113.955 199.615 L 113.955 199.615 Q 112.635 200.5 111.191 200.873 L 111.191 200.873 L 111.191 200.873 Q 109.747 201.246 107.883 201.246 Z M 120.089 200.873 L 123.909 179.133 L 130.649 179.133 L 130.649 179.133 Q 134.966 179.133 137.217 181.928 L 137.217 181.928 L 137.217 181.928 Q 139.469 184.723 139.469 189.04 L 139.469 189.04 L 139.469 189.04 Q 139.469 191.183 138.801 193.217 L 138.801 193.217 L 138.801 193.217 Q 138.134 195.251 136.814 197.006 L 136.814 197.006 L 136.814 197.006 Q 135.494 198.761 133.195 199.817 L 133.195 199.817 L 133.195 199.817 Q 130.897 200.873 127.947 200.873 L 127.947 200.873 L 120.089 200.873 Z M 124.903 196.898 L 127.916 196.898 L 127.916 196.898 Q 131.27 196.898 133.102 194.584 L 133.102 194.584 L 133.102 194.584 Q 134.935 192.27 134.935 189.226 L 134.935 189.226 L 134.935 189.226 Q 134.935 186.431 133.708 184.769 L 133.708 184.769 L 133.708 184.769 Q 132.481 183.108 130.09 183.108 L 130.09 183.108 L 127.326 183.108 L 124.903 196.898 Z M 155.899 200.873 L 141.022 200.873 L 144.842 179.133 L 159.097 179.133 L 158.414 183.108 L 148.414 183.108 L 147.606 187.673 L 153.414 187.673 L 152.7 191.649 L 146.892 191.649 L 145.991 196.898 L 156.613 196.898 L 155.899 200.873 Z M 163.011 200.873 L 157.855 200.873 L 166.707 189.475 L 162.296 179.133 L 167.017 179.133 L 169.75 185.561 L 174.782 179.133 L 179.937 179.133 L 171.583 189.847 L 176.334 200.873 L 171.614 200.873 L 168.539 193.761 L 163.011 200.873 Z"/>
 </g>
 <defs>
  <filter id="Yk5Z2e1qPvwctgJvwLN85Qsw8V8zMICC" width="204.943" height="113.39" x="25.65" y="138.61" filterUnits="userSpaceOnUse">
   <feGaussianBlur xmlns="http://www.w3.org/2000/svg" in="SourceGraphic" stdDeviation="4.294"/>
   <feOffset xmlns="http://www.w3.org/2000/svg" dx="0" dy="4" result="pf_100_offsetBlur"/>
   <feFlood xmlns="http://www.w3.org/2000/svg" flood-opacity=".4"/>
   <feComposite xmlns="http://www.w3.org/2000/svg" in2="pf_100_offsetBlur" operator="in" result="pf_100_dropShadow"/>
   <feBlend xmlns="http://www.w3.org/2000/svg" in="SourceGraphic" in2="pf_100_dropShadow" mode="normal"/>
  </filter>
 </defs>
</svg>
